UI/Weather/SVG/clear-night_solid_24px.svg

<svg width="24" height="24" viewBox="0 0 24 24" fill="none" xmlns="http://www.w3.org/2000/svg">
<path d="M15.31 4.00001L14.31 5.00001L14.81 6.50001L13.31 5.50001L11.81 6.50001L12.31 5.00001L11.31 4.00001H12.81L13.31 2.50001L13.81 4.00001H15.31ZM21.31 12.47L20.56 9.72001L22.31 8.00001H19.81L18.81 5.50001L17.81 8.00001H15.31L17.06 9.75001L16.31 12.47L18.81 11L21.31 12.47ZM21 14.65C19.4163 15.3829 17.646 15.6124 15.9278 15.3076C14.2097 15.0029 12.6263 14.1785 11.3913 12.9457C10.1563 11.7129 9.32911 10.131 9.02131 8.41331C8.71352 6.69567 8.93993 4.92495 9.66999 3.34001C9.70846 3.21394 9.72164 3.08152 9.70875 2.95035C9.69587 2.81918 9.65718 2.69185 9.59492 2.57569C9.53265 2.45952 9.44804 2.35681 9.34594 2.27346C9.24384 2.19011 9.12627 2.12776 8.99999 2.09001C8.8047 2.02859 8.59527 2.02859 8.39999 2.09001C6.86714 2.78882 5.52638 3.84854 4.49238 5.1785C3.45838 6.50847 2.76191 8.06911 2.46256 9.72692C2.16321 11.3847 2.26988 13.0904 2.77344 14.698C3.277 16.3056 4.16247 17.7673 5.35412 18.9581C6.54576 20.1489 8.0081 21.0333 9.61607 21.5357C11.224 22.0381 12.9298 22.1435 14.5874 21.843C16.245 21.5424 17.8051 20.8448 19.1343 19.8099C20.4635 18.7749 21.5223 17.4334 22.22 15.9C22.2981 15.6467 22.2725 15.3728 22.1487 15.1384C22.0249 14.904 21.8132 14.7284 21.56 14.65C21.3771 14.5967 21.1828 14.5967 21 14.65Z" fill="#0F1621"/>
</svg>

<svg xmlns="http://www.w3.org/2000/svg" width="24" height="24" viewBox="0 0 24 24"><rect width="24" height="24" style="fill:none"/><path d="M15.31,4l-1,1,.5,1.5-1.5-1-1.5,1,.5-1.5-1-1h1.5l.5-1.5.5,1.5Zm6,8.47-.75-2.75L22.31,8h-2.5l-1-2.5-1,2.5h-2.5l1.75,1.75-.75,2.72L18.81,11ZM21,14.65A8.53,8.53,0,0,1,9.67,3.34,1,1,0,0,0,9,2.09a1,1,0,0,0-.6,0A10.43,10.43,0,1,0,22.22,15.9a1,1,0,0,0-.66-1.25A1,1,0,0,0,21,14.65Z"/></svg>
